icons/ppe_apron.svg

<svg width="48" height="48" viewBox="0 0 48 48" fill="none" xmlns="http://www.w3.org/2000/svg">
<path fill-rule="evenodd" clip-rule="evenodd" d="M20.0499 5.96338L20.3418 6.62091C20.9649 8.02429 22.3696 8.99983 24 8.99983C25.6304 8.99983 27.0351 8.02429 27.6582 6.62092L27.9501 5.96338L28.6663 6.03113C32.2203 6.36732 35 9.35833 35 12.9998V24.9998C35 26.6566 33.6569 27.9998 32 27.9998H31V39.7206L27.4785 40.8944C25.2206 41.6471 22.7794 41.6471 20.5215 40.8944L17 39.7206V27.9998H16C14.3431 27.9998 13 26.6566 13 24.9998V12.9998C13 9.35833 15.7797 6.36732 19.3337 6.03113L20.0499 5.96338ZM33 24.9998C33 25.552 32.5523 25.9998 32 25.9998H31V14.9998H29V21.9998H19V14.9998H17V25.9998H16C15.4477 25.9998 15 25.552 15 24.9998V12.9998C15 10.6243 16.6572 8.63492 18.878 8.12597C19.9313 9.84831 21.8303 10.9998 24 10.9998C26.1697 10.9998 28.0686 9.8483 29.122 8.12597C31.3428 8.63491 33 10.6243 33 12.9998V24.9998ZM26.8461 38.9971L29 38.2791V23.9998H19V38.2791L21.1539 38.9971C23.0014 39.6129 24.9986 39.6129 26.8461 38.9971Z" fill="black"/>
</svg>

<svg
  xmlns="http://www.w3.org/2000/svg"
  width="24"
  height="24"
  viewBox="0 0 24 24"
  fill="none"
  stroke="currentColor"
  stroke-width="2"
  stroke-linecap="round"
  stroke-linejoin="round"
>
  <path
    fill-rule="evenodd"
    d="m20.05 5.963.292.658a4.001 4.001 0 0 0 7.316 0l.292-.658.716.068A7 7 0 0 1 35 13v12a3 3 0 0 1-3 3h-1v11.72l-3.521 1.174a11 11 0 0 1-6.957 0L17 39.721V28h-1a3 3 0 0 1-3-3V13a7 7 0 0 1 6.334-6.969zM33 25a1 1 0 0 1-1 1h-1V15h-2v7H19v-7h-2v11h-1a1 1 0 0 1-1-1V13a5 5 0 0 1 3.878-4.874A6 6 0 0 0 24 11a6 6 0 0 0 5.122-2.874A5 5 0 0 1 33 13zm-6.154 13.997L29 38.28V24H19v14.28l2.154.718a9 9 0 0 0 5.692 0"
    clip-rule="evenodd"
  />
</svg>
